X:1
T:Cäcilie
T:Cäcilie
T:(Heinrich Hart)
T:Richard Strauss, Op.27 No.2
C:Richard Strauss, Op.27 No.2
%%score 1 { ( 2 4 6 ) | ( 3 5 7 ) }
L:1/8
Q:1/4=114
M:4/4
K:E
V:1 treble nm="ソプラノ"
V:2 treble nm="Piano"
V:4 treble 
V:6 treble 
V:3 bass 
V:5 bass 
V:7 bass 
V:1
 z8[Q:1/4=110] |[Q:1/4=114] z8 | z8 | %3
w: |||
[Q:1/4=112] z4[Q:1/4=108] z2[Q:1/4=112]!mp! (3F G A[Q:1/4=110] |[Q:1/4=114] B4 F2 z[Q:1/4=110] F | %5
w: Wenn du es|wüß- test, was|
[Q:1/4=114] G3/2 A/ B2 z G[Q:1/4=112]!<(! (3G A B!<)! |[Q:1/4=114]!mf! ^B2 c c e2[Q:1/4=112] d c | %7
w: träu- men heißt von bren- nen- den|Küs- sen, von Wan- dern und|
[Q:1/4=114] c4[Q:1/4=112]!mp! B B[Q:1/4=110] B B |[Q:1/4=114] e4 e4 | %9
w: Ru- hen mit der Ge-|lieb- ten,|
 d3 f[Q:1/4=112] f2[Q:1/4=110] G2 |[Q:1/4=114] z G =d4[Q:1/4=110] c B | %11
w: Aug' in Au- ge|und ko- send und|
[Q:1/4=114] G4[Q:1/4=112] A2[Q:1/4=110] z2 |[Q:1/4=114] z2!mf! (3c d e e2 F2 | %13
w: plau- dernd,|wenn du es wüß- test,|
[Q:1/4=110] z!f! d[Q:1/4=114] f4[Q:1/4=110] B A |[Q:1/4=114] G4 z4[Q:1/4=112] | %15
w: du neig- test dein|Herz!|
[Q:1/4=114] z2[Q:1/4=112] (3E F =G B2 ^A2 | z!>(! =d _B4[Q:1/4=110] A2!>)! |!mp! =G4 z2 G2 | %18
w: Wenn du es wüß- test,|was ban- gen|heißt in|
 _B2 B A A2 =G2 | z =G =d4!<(! =c d!<)! |!mf! =B3- x2- x/ x/!>(! B2!>)! |!p! =c6 c2 | %22
w: ein- sa- men Näch- ten,|um- schau- ert vom|Sturm, * da|nie- mand|
 =c2 _B2 _d3 c | =c2 B B =d2 =G =F | =F4!<(! E4!<)! | z2!mp! (3E A B =d2 =c2 | z!mf! e =g4 =c B | %27
w: trö- stet mil- den|Mun- des die kampf- mü- de|See- le,|wenn du es wüß- test,|du kä- mestr zu|
 A4 z4 | z8 |[Q:1/4=114] z8 | z2!f! (3^A B c e2 =G2 | z[Q:1/4=110] =d[Q:1/4=114] =g6- | %32
w: mir.|||Wenn du es wüß- test,|was le-|
[Q:1/4=110] =g2[Q:1/4=100] f2[Q:1/4=90]!>(! =f3/2-x x/[Q:1/4=60] (=G!>)![Q:1/4=80] | %33
w: * ben heißt, um-|
[Q:1/4=112]!p! e4 e3 e | e4 =d4 | =f2 f3 f f2 | =f4 e4) |!p! z =G G4 A B | =c8 | %39
w: haucht von der|Gott- heit|welt- schaf- fen- dem|A- tem,|zu schwe- ben em-|por,|
"_cresc." e3 =d[Q:1/4=110] d2 =c2 | z2 =c2[Q:1/4=108] e2[Q:1/4=100] =f =g | %41
w: licht- ge- tra- gen,|zu se- li- gen|
[Q:1/4=110]!f! a8-[Q:1/4=100] | a4 z4[Q:1/4=95][Q:1/4=90] |[Q:1/4=112] z8 | z2 c2 d2 e2 | %45
w: Höh'n,|_||wen du es|
 e4 B2 z2 |[Q:1/4=110] z2!<(! (3^A B c[Q:1/4=105] f2[Q:1/4=100] e2!<)! | %47
w: wüß- test,|wen du es wüß- test,|
[Q:1/4=110] z2!ff! e2 (e4- | e4 g4- | g4 b4-[Q:1/4=100] |[Q:1/4=95] b2) c2 z2[Q:1/4=90] f2 | %51
w: du leb-|||* test mit|
[Q:1/4=114] e6 z2 | z8 | z8 |[Q:1/4=110] z8[Q:1/4=100][Q:1/4=95][Q:1/4=85][Q:1/4=72] | z8 |] %56
w: mir!|||||
V:2
!ff!"^Sehr lebhaft und drängend" ([gbg']4 [ee']2- (3[ee'][dd'][cc'] | [Be=gb]3 [^A^a] [cegc']4) | %2
 ([e=gbe'] [=d=d']2 [=G=g] [Bdgb]2 [A=cfa]2 |!f! ^g2- (3gba (3[Bg])"_dim."GE!p! (3([^DF][EG][FA] | %4
!p! [GB]4 [DF]2) z ([DF] | [EG]>[FA] [GB]4!<(! (3[EG][FA][GB]!<)! |!mp! ^B2 c2 e2 dc | c4!p! B4) | %8
 (e6 de | f3 d G2 c2) | ([Ge]2 [F=d]4 [=Ec][=DB] | [B,=D^EG]4"_cresc." (3[A,CFA])(FG (3Ac=e | %12
 [Gc-e-g]4 (3[Fcef])(cd (3ed'c' |!f! [Bdb]4) (f2 [GB][FA]) | %14
!f! ([gbg']4 [ee']2- (3[ee'][dd'][cc'] | [Be=gb]3 [^A^a] [cegc']4) |"_dim." x2 _B4 A2 | %17
!p! ([_B,-=G]4 (3B,=C^C (3=DFG) | (_B3 A) [=DA]2 z2 | ([_B=d]6!<(! [A=c][=Gd]!<)! | %20
!mp! [=D-=F=B]4)!>(! (3D_E=E (3F_AB!>)! |!pp! ([=C-_A=c]4 (3C_D=D (3_EAc) | (=c2 _B2 _d3 c) | %23
 (3:2:2(=c2 B (3=F=D=C D4 | [=A,=D=F]4"_cresc." (3[G,DE])(B,^D (3EGB | %25
!p! [EA=ce]4)"_cresc." (3z (EG (3A=ce) | ([=G=ce=g]6 [Ac][GB] | [=DFA]4) (3z (A,C (3DFA | %28
 =d)(f!f! [=ca]4!<(! [B=d][A=c])!<)! |!ff! ([B=db]4 [=G=g]2- (3[Gg][Ff][Ee] | [=D=d]3 [Cc] [Ee]4) | %31
 ([=db=d']4 [B=g-b-]2 (3[gb][fa][eb] | [B=d=g]4) (3z"_dim." (=GA (3B=cd) |!p! e8 | (=e4 =d4) | %35
 (=f4 f4 | (=f4 e4)) |!pp! x2[I:staff +1] =C/[I:staff -1]E/=G/=c/ e/c/G/E/ x2 | %38
"_cresc." x2[I:staff +1] =C/[I:staff -1]E/A/=c/ e/c/A/E/ x2 | %39
 x2[I:staff +1] =C/[I:staff -1]E/_B/=c/ e/c/B/E/ x2 | %40
 x2[I:staff +1] =C/[I:staff -1]E/=G/=c/- [Ece]2 [=F=d=f][Ge=g] | a4 x2 !>![=fa]2- | %42
 [fa]2 ([A=fa]4 [^A^f^a]2) |!f! ([Begb]4 [eg-]2 (3gfe | [d=g^ad']4 [cgac']4) | %45
 ([Be^gb]4"_cresc." [eg-]2 (3gfe | (([f^a-c'-f']4 [eac'e']4))) | %47
!ff! ([gbe'g']4 [e-gbe'-]2 (3[ee'][dd'][cc'] | [Bgb]4 [Geg-]2 (3gec | %49
 [GB]2) (6:4:6B,/E/G/B/e/g/ ([gb]4- | [gb]2 [EGc]4 [B,DFB]2 | [EG]2)"_dim." x2 x2 (3([DF][EG][FA] | %52
 [GB]4) x2!mp! (3([DF][EG][FA] | [GB]2) x2 G z[I:staff +1] E,/G,/[I:staff -1]B,/E/ | %54
 G/B/e/g/ [Bb]2 [ee']2 z!ff! !>![gbg'] | !fermata![G,E]8 |] %56
V:3
"_con Ped."!ped! (3(E,,B,,E, (3G,B,E (3GEB, G,) z!ped-up! | %1
!ped! (3(E,,C,E, (3=G,^A,C (3EC=G ^A) z!ped-up! | %2
!ped! (3([=D,,=D,]=G,,B,, (3D,=G,B, =D2!ped-up!!ped! (3[^D,^D]A,F,!ped-up! | %3
!mf!!ped! x2 (3E^EF =E)!ped-up! z!ped! B,,2!ped-up! | %4
!p!!ped! (3(E,,B,,E, (3G,[I:staff -1]B,E)!ped-up!!ped![I:staff +1] (3z (A,F, (3D,B,,) z!ped-up! | %5
!ped! (3(E,,B,,E, (3G,B,E (3GEB, G,) z!ped-up! | %6
!p!!ped! (3(E,,=G,,^A,, (3C,E,=G, (3^A,CE (3=G^A) z!ped-up! | %7
!ped! (3D,,F,,B,, (3D,F,B,!p! D4!ped-up! |!ped! E4-!ped-up!!ped! ED C2!ped-up! | %9
!ped! (3(^B,,,G,,^B,, (3D,F,G,!ped-up!!ped! ^B,2 C2)!ped-up! | %10
!ped! (3(E,,C,E, (3G,B,E!ped-up!"^r.H."!ped! (3G)(^E,,B,, (3=D,^E,G,)!ped-up! | %11
!ped! (3z (F,,,F,,"_cresc." (3B,,=D,^E,!ped-up!!ped! F,4)!ped-up! | %12
!ped! (3([A,,,A,,]E,,A,, (3C,E,F,!ped-up!!ped! (3G,A,B, (3CDE)!ped-up! | %13
!ped! (3(FB,C (3DEF)!ped-up!!ped! z2 B,,2!ped-up! |!ped! (3(E,,B,,E, (3G,B,E (3GEB, G,) z!ped-up! | %15
!ped! (3(E,,C,E, (3=G,^A,C (3EC=G ^A) z!ped-up! | %16
!ped!"_dim." x4!ped-up!!ped! (=D>C =C>B,)!ped-up! | %17
!p!!ped! (3(=G,,_A,,=A,, (3_B,,=C,^C,!ped-up!!ped! =D,4)!ped-up! | %18
!ped! (_E,4!ped-up!!ped! =D,4)!ped-up! | %19
!ped! z2 (=C,/_B,,/A,,/F,,/!ped-up!!ped! =G,,/A,,/!<(!B,,/C,/!ped-up!!ped! =D,/E,/F,/=G,/!<)!!ped-up! | %20
"^"!p!!ped! T_A,3!ped-up!!ped! =G,/=F,/!ped-up!!ped! A,4)!ped-up! | %21
!pp!!ped! (3(_A,,_B,,=B,, (3=C,_D,=D,!ped-up!!ped! _E,4)!ped-up! | %22
!ped! _F,4!ped-up!!ped! (=F,2 =G,2!ped-up! |!ped! _A,2) z2!ped-up!!ped! =F,4!ped-up! | %24
!ped! (3:2:2(B,,2 =C,"^cresc." (3^C,=D,^D,!ped-up!!ped! E,2) z2!ped-up! | %25
!p!!ped! (3([=C,,=C,]"^cresc."=D,^D, (3E,F,G,!ped-up!!ped! A,4)!ped-up! | %26
!ped! (3([A,,,A,,]=C,^D, (3E,A,B, (3=C^DE) z2!ped-up! | %27
!ped! (3([=D,,=D,]A,,C, (3D,F,A,!ped-up!!ped! =C4)!ped-up! | %28
 z2!f!!ped! (3(=D,,A,,=D, (3F,!<(!A,=D F) z!ped-up!!<)! | %29
!f!!ped! (3([=G,,,=G,,]=D,,G,, (3B,,=D,=G, (3B,=C^C =D) z!ped-up! | %30
!ped! (3([=G,,,=G,,]^A,,C, (3E,=G,^A, (3CA,G, E,) z!ped-up! | %31
!ped! (3([=G,,,=G,,]=D,,G,, (3B,,=D,=G, (3B,=C^C (3=D^DE!ped-up! | %32
!ped! (3=F) z (=G,, (3=D,=G,B, [=DF]4)!ped-up! | %33
!p!!ped! (=C,,/=G,,/=C,/E,/ x2 x2 =G,/E,/C,/) z/!ped-up! | %34
!ped! (=C,,/=C,/=F,/A,/ x2 x2 =C/A,/F,/C,/)!ped-up! | %35
!ped! (=C,,/=C,/=F,/A,/ x2 x2 B,/=G,/=D,/) z/!ped-up! | %36
!ped! (=C,,/=G,,/=C,/=G,/ =C) z z2 C/G,/E,/C,/!ped-up! | %37
!ped! (B,,,/B,,/E,/=G,/ x2 x2 =C/G,/E,/B,,/)!ped-up! | %38
!ped! (A,,,/A,,/E,/A,/ x2 x2 =C/A,/E,/A,,/)!ped-up! | %39
!ped! (=G,,,/=G,,/=G,/_B,/ x2 x2 =C/B,/G,/=C,/)!ped-up! | %40
!ped! =C,,/=C,/=G,/_B,/ x2!ped!!ped-up! x4!ped-up!!ped!!ped-up! | %41
!ped! (=F,,/=C,/=F,/A,/ x2 x2 =F/=C/A,/F,/)!ped-up! |!ped! x2 (=F4 ^F2)!ped-up! | %43
!ped! [B,,,B,,](E,,/B,,/ E,/G,/B,/E/ G2- (3GFE)!ped-up! |!ped! [B,E=G^A]8!ped-up! | %45
!ped! [B,,,B,,](E,,/B,,/ E,/G,/B,/E/ G2- (3GFE)!ped-up! |!ped! (F6 =G2)!ped-up! | %47
!ped! (3([B,,,B,,]E,G, (3B,EG (3BGE (3B,G,E,)!ped-up! | %48
!ped! (3(B,,B,,,B,, (3E,G,B, (3EB,E (3GEC)!ped-up! |!ped! B,/B,,/E,/G,/ z2 z2 B2- | %50
 ([B,B]2!ped-up!!ped! ^A,4!ped-up!!ped! [B,,=A,]2)!ped-up! | %51
!ped! [E,,E,](E,,/B,,/ E,/[I:staff -1]G,/B,/E/ G2)!ped-up!!ped![I:staff +1] ([B,,-A,]2!ped-up! | %52
!ped! [B,,G,]/)(E,,/B,,/E,/ G,/[I:staff -1]B,/E/G/ B2)!ped-up!!ped![I:staff +1] [B,,A,]2!ped-up! | %53
!ped! [E,,B,,E,G,]E,,/B,,/ E,/G,/"^cresc."[I:staff -1]B,/E/[I:staff +1] z!ped-up!!ped! E,,/B,,/ x2 | %54
 z2 ([G,E]2 [B,G]2) z[K:treble] !>![EBe] |[K:bass] !fermata![E,,B,,E,]8!ped-up! |] %56
V:4
 x8 | x8 | x8 | [^GBe]^d (3:2:2=d2 c x4 | x8 | x8 | [=G^A]8 | F4 B2 ^A2 | =A2 GA c2 BA | G4 F2 E2 | %10
 x8 | x8 | x8 | A4 (3dBA D2 | x8 | x8 | (3[=d_b=d']=gd (3_B=G=D- (3D^DE- (3E^EF | x8 | %18
 [=CF]4 (3(_B,C^C (3=DF=G) | x8 | x8 | x8 | =G4 _A4 | [=D=F]2 x2 B,3 ^A, | x8 | x8 | x8 | x8 | x8 | %29
 x8 | [=G^A]4 x4 | x8 | x8 | [E=G=c]2[I:staff +1] =G,/=C/[I:staff -1]E/G/ c/G/E/C/ x2 | %34
 [EA=c]2[I:staff +1] =C/E/[I:staff -1]=F/A/ =d/A/F/=D/ x2 | %35
 [=FA=c]2[I:staff +1] =C/=E/[I:staff -1]F/A/ =d/A/=G/[I:staff +1]=D/[I:staff -1] x2 | %36
 [=F=G=c]2 z/ F/G/c/ e/=c/G/E/ x2 | x8 | x8 | x8 | x8 | %41
 [A=c=f]2[I:staff +1] =C/[I:staff -1]A/c/f/ a/f/c/A/ x2 | z4 e4 | x8 | x8 | x8 | x8 | x8 | x8 | %49
 x8 | x8 | [G,B,]2 x2 x2 B,2- | B,2 x2 x2 B,2- | B,2 x2 x4 | x8 | x8 |] %56
V:5
 x8 | x8 | x8 | (3[E,E]G,B, A,2 B, x x2 | x8 | x8 | x8 | x4 D2 ^^C2 | ^C3 B, A,4 | x8 | x8 | x8 | %12
 x8 | x8 | x8 | x8 | =D,4- D,4 | x8 | x8 | x8 | (7:6:7x/x/x/x/x/x/x/ x x4 | x8 | x8 | %23
 x4 A,,3 ^A,, | B,,4- B,,2 x2 | x8 | x8 | x8 | x8 | x8 | x8 | x8 | x8 | x8 | x8 | x8 | x8 | x8 | %38
 x8 | x8 | x8 | x8 | =C,2 x2 E4 | x8 | x8 | x8 | [CE^A]8 | x8 | x8 | x8 | x8 | x8 | x8 | x8 | %54
 x7[K:treble] x |[K:bass] x8 |] %56
V:6
 x8 | x8 | x8 | x8 | x8 | x8 | E4 x4 | x8 | x8 | x8 | x8 | x8 | x8 | x8 | x8 | x8 | x8 | x8 | x8 | %19
 x8 | x8 | x8 | _D4 _D2 _E2 | x8 | x8 | x8 | x8 | x8 | x8 | x8 | x8 | x8 | x8 | x8 | x8 | x8 | x8 | %37
 x8 | x8 | x8 | x8 | x8 | x8 | x8 | x8 | x8 | x8 | x8 | x8 | x8 | x8 | x8 | x8 | x8 | x8 | x8 |] %56
V:7
 x8 | x8 | x8 | x8 | x8 | x8 | x8 | x8 | x8 | x8 | x8 | x8 | x8 | x8 | x8 | x8 | x8 | x8 | x8 | %19
 x8 | x8 | x8 | x8 | x8 | x8 | x8 | x8 | x8 | x8 | x8 | x8 | x8 | x8 | x8 | x8 | x8 | x8 | x8 | %38
 x8 | x8 | x8 | x8 | =C,,2 =C6 | x8 | x8 | x8 | x8 | x8 | x8 | x8 | x8 | x8 | x8 | x8 | %54
 x7[K:treble] x |[K:bass] x8 |] %56

